X: 1
T: Purpurivalssi
C: Pekka Pentik\"ainen
O: Finland
R: waltz
Z: 2021 John Chambers <jc:trillian.mit.edu>
M: 3/4
L: 1/8
K: Em
|:\
"Em"B4 cB- | "Am"B2 A2 G2 | "B"F2 A2 BA | "Em"E4 B2 |\
"(G)"B2 d2 cd | "Am"e3 d c2 | "D"c2 d2 Ac | "G"B4 "/B"d2 |
"Em"e2 g2 "B"f2 | "Am"e3 d c2- | "B"c2 B3 A | "Em"B4 G2 |\
"Am"F2 A2 c2 | "B"B2 A2 G2 | F3 A B2 |1 "Em"E4 B2- :|2 "Em"E4 e2 |]
|:\
"Em"eg ge "D"de | "G"B3 d dB | "Am"Bc cB "B"AB | "Em"G4 "D"F2 |\
"C"EF "D"FG "C"GA | "D"AB Bc cd | "G"B3 d c/d/c/B/ | "B"B3 A GF |
"Em"E3 G GB | "Am"Bc Ac "B"BA | "Em"G3 B "/C"AB | "Bm/D"F3 A GF |\
"Em/C"E2 B,2 EG | "B"F^D B,2 D2 |1 "Em"E6- | E^D EF GB :|2 "Em"(E3 G B2 | [e6E6]) |]
